assets/Right arrow curving up/Flat/right_arrow_curving_up_flat.svg

<svg width="32" height="32" viewBox="0 0 32 32" fill="none" xmlns="http://www.w3.org/2000/svg">
<path d="M2 6C2 3.79086 3.79086 2 6 2H26C28.2091 2 30 3.79086 30 6V26C30 28.2091 28.2091 30 26 30H6C3.79086 30 2 28.2091 2 26V6Z" fill="#00A6ED"/>
<path d="M9 24.593C9 25.1453 9.44772 25.593 10 25.593H11.9926C11.9967 25.593 12 25.5897 12 25.5856C12 25.5813 12.0036 25.5779 12.0079 25.5782C12.1706 25.588 12.3347 25.593 12.5 25.593C16.6421 25.593 20 22.459 20 18.593V12.843C20 12.7049 20.1119 12.593 20.25 12.593L22.2382 12.593C22.9083 12.593 23.2421 11.7813 22.7658 11.31L18.5276 7.1152C18.2353 6.82594 17.7647 6.82594 17.4724 7.1152L13.2342 11.31C12.7579 11.7813 13.0917 12.593 13.7618 12.593H15.75C15.8881 12.593 16 12.7049 16 12.843V18.593C16 19.9944 14.6974 21.593 12.5 21.593C12.3331 21.593 12.1714 21.5838 12.015 21.5661C12.007 21.5652 12 21.5715 12 21.5796C12 21.587 11.994 21.593 11.9865 21.593H10C9.44772 21.593 9 22.0407 9 22.593V24.593Z" fill="white"/>
</svg>

<svg xmlns="http://www.w3.org/2000/svg" width="32" height="32" fill="none"><path fill="#00A6ED" d="M2 6a4 4 0 0 1 4-4h20a4 4 0 0 1 4 4v20a4 4 0 0 1-4 4H6a4 4 0 0 1-4-4V6Z"/><path fill="#fff" d="M9 24.593a1 1 0 0 0 1 1h1.993a.007.007 0 0 0 .007-.007c0-.005.004-.008.008-.008.163.01.327.015.492.015 4.142 0 7.5-3.134 7.5-7v-5.75a.25.25 0 0 1 .25-.25h1.988a.75.75 0 0 0 .528-1.283l-4.238-4.195a.75.75 0 0 0-1.056 0l-4.238 4.195a.75.75 0 0 0 .528 1.283h1.988a.25.25 0 0 1 .25.25v5.75c0 1.401-1.303 3-3.5 3-.167 0-.329-.01-.485-.027a.014.014 0 0 0-.015.014.013.013 0 0 1-.014.013H10a1 1 0 0 0-1 1v2Z"/></svg>
